resources/svg/delete-bin-6-line.svg

<svg xmlns="http://www.w3.org/2000/svg" viewBox="0 0 24 24" fill="currentColor">
    <g>
        <path fill="none" d="M0 0h24v24H0z"/>
        <path d="M7 4V2h10v2h5v2h-2v15a1 1 0 0 1-1 1H5a1 1 0 0 1-1-1V6H2V4h5zM6 6v14h12V6H6zm3 3h2v8H9V9zm4 0h2v8h-2V9z"/>
    </g>
</svg>

<svg fill="currentColor" viewBox="0 0 24 24" xmlns="http://www.w3.org/2000/svg"><path d="M7 4V2H17V4H22V6H20V21C20 21.5523 19.5523 22 19 22H5C4.44772 22 4 21.5523 4 21V6H2V4H7ZM6 6V20H18V6H6ZM9 9H11V17H9V9ZM13 9H15V17H13V9Z"/></svg>
